X:1
T:Title
%%score { 1 | 2 }
L:1/8
M:4/4
K:F
V:1 treble nm="Grand Piano"
V:2 bass 
V:1
 c4 | c4 c4 | c2 d2 _e4 | d4 c4 | B4 c4 | A4 F2 G2 | A4 =B4 | c4 d4 | c4 c4 | c4 c4 | c2 d2 _e4 | %11
 d4 c4 | B4 c4 | A4 F2 G2 | A4 =B4 | c4 d4 | c4 c4 | f4 e4 | d4 c4 | f2 e2 d2 c2 | c4 c4 | f4 c4 | %22
 d4 A2 B2 | c4 B2 A2 | A4 A4 | G2 A2 B4 | A4 G4 | D4 E4 |[M:2/4] F4 |] %29
V:2
 F,4 | E,4 F,4 | C,4 A,,4 | B,,4 F,,4 | B,,4 E,4 | F,4 F,,4 | F,2 E,2 D,4 | C,4 G,,4 | C,4 F,4 | %9
 E,4 F,4 | C,4 A,,4 | B,,4 F,,4 | B,,4 E,4 | F,4 F,,4 | F,2 E,2 D,4 | C,4 G,,4 | C,4 C,2 B,,2 | %17
 A,,4 C,4 | G,2 F,2 E,4 | D,4 G,,4 | C,4 C,2 A,,2 | A,,2 G,,2 A,,4 | B,,4 D,4 | E,2 ^F,2 G,4 | %24
 D,4 F,4 | C,4 G,,4 | A,,2 B,,2 C,4 | D,2 B,,2 G,,2 C,2 |[M:2/4] F,,4 |] %29

